X: 31172
T: COTILLION No. 17. LADY GAY SPANKER'S SETT tune 2
C:
%R: jig
B: Elias Howe "The Musician's Companion" Part 3 1844 p.117 #2
S: http://imslp.org/wiki/The_Musician's_Companion_(Howe,_Elias)
Z: 2015 John Chambers <jc:trillian.mit.edu>
M: 6/8
L: 1/8
K: C
% - - - - - - - - - - - - - - - - - - - - - - - - - - - - -
!p!G, |\
G,3 G,CE | G3 c3 | cBd G3  | GFD B,3 |\
A,3 A,DF | A3 G3 | GFD B,3 | GAB c2 H|]
A |\
a3 A3 | Adf a2A | g3 G3 | Gce g2g | ^fgf efe | dGB d2c | BcB ABA | GBA "^D.C."G2 |]
G |\
c3 G2G | edc edc | {A}a3 afd | B3 Bdg |\
a3 gdf | e3 (eg)g | c3 cdc | Bdg d/B/G/F/D/"^D.C."B,/ |]
% - - - - - - - - - - Dance description - - - - - - - - - -
%%begintext align
%% All forward and back,
%% cross over,
%% chassa out
%% balance, &c.
%%endtext
% - - - - - - - - - - - - - - - - - - - - - - - - - - - - -
%%sep 1 1 300
